arrow-left-right.svg

<svg fill="currentColor" viewBox="0 0 24 24"><path d="M6.45 17.45 1 12l5.45-5.45 1.41 1.41L4.83 11h14.34l-3.03-3.04 1.41-1.41L23 12l-5.45 5.45-1.41-1.41L19.17 13H4.83l3.03 3.04z"/></svg>

<svg  viewBox="0 0 24 24" fill="currentColor"><path  d="M6.45,17.45L1,12L6.45,6.55L7.86,7.96L4.83,11H19.17L16.14,7.96L17.55,6.55L23,12L17.55,17.45L16.14,16.04L19.17,13H4.83L7.86,16.04L6.45,17.45Z"/></svg>
